packages/foundations/assets/icons/functional/images/social/thumbs_down_32.svg

<svg width="32" height="32" viewBox="0 0 32 32" fill="none" xmlns="http://www.w3.org/2000/svg">
<g clip-path="url(#clip0_187_445)">
<path fill-rule="evenodd" clip-rule="evenodd" d="M21.643 20C22.26 21.32 23.016 23.287 23.016 25C23.016 27.355 21.776 29.001 20 29.001C18.348 29.001 17.993 27.886 17.707 26.989C17.567 26.551 17.409 26.053 17.105 25.447C15.63 22.498 12.313 20.071 11.019 19.203C10.485 19.693 9.78 19.999 8.999 19.999H5C3.346 19.999 2 18.653 2 16.999V7.99898C2 6.34498 3.346 4.99898 5 4.99898H9C9.83 4.99898 10.582 5.33898 11.126 5.88498C12.986 5.19897 19.101 2.99898 21 2.99898C25.881 2.99898 30 10.37 30 14.999C30 16.869 30 19.999 26 19.999L21.643 20ZM10 7.99998C10 7.44798 9.551 6.99998 9 6.99998H5C4.449 6.99998 4 7.44798 4 7.99998V17C4 17.552 4.449 18 5 18H9C9.551 18 10 17.552 10 17V7.99998ZM11.97 7.70698C11.98 7.80498 12 7.89997 12 7.99998V17C12 17.145 11.977 17.284 11.957 17.423C13.261 18.275 17.12 21.004 18.894 24.552C19.267 25.297 19.466 25.924 19.612 26.381C19.693 26.634 19.793 26.948 19.79 26.981C19.79 26.981 19.846 27.001 19.999 27.001C20.697 27.001 21.015 25.964 21.015 25C21.015 22.716 19.157 19.54 19.139 19.509C18.956 19.199 18.953 18.817 19.132 18.504C19.31 18.192 19.641 18 20 18H26C27.598 18 28 17.646 28 15C28 11.052 24.246 4.99998 21 4.99998C19.762 4.99998 15.053 6.57398 11.97 7.70698Z" fill="#1A1C1F"/>
</g>
<defs>
<clipPath id="clip0_187_445">
<rect width="32" height="32" fill="white"/>
</clipPath>
</defs>
</svg>

<svg xmlns="http://www.w3.org/2000/svg" width="32" height="32" fill="none"><g clip-path="url(#a)"><path fill="#1A1C1F" fill-rule="evenodd" d="M21.643 20c.617 1.32 1.373 3.287 1.373 5 0 2.355-1.24 4.001-3.016 4.001-1.652 0-2.007-1.115-2.293-2.012-.14-.438-.298-.936-.602-1.542-1.475-2.949-4.792-5.376-6.086-6.244a2.98 2.98 0 0 1-2.02.796H5c-1.654 0-3-1.346-3-3v-9c0-1.654 1.346-3 3-3h4c.83 0 1.582.34 2.126.886 1.86-.686 7.975-2.886 9.874-2.886 4.881 0 9 7.371 9 12 0 1.87 0 5-4 5zM10 8c0-.552-.449-1-1-1H5c-.551 0-1 .448-1 1v9c0 .552.449 1 1 1h4c.551 0 1-.448 1-1zm1.97-.293c.01.098.03.193.03.293v9c0 .145-.023.284-.043.423 1.304.852 5.163 3.581 6.937 7.129.373.745.572 1.372.718 1.829.081.253.181.567.178.6 0 0 .056.02.209.02.698 0 1.016-1.037 1.016-2.001 0-2.284-1.858-5.46-1.876-5.491A.999.999 0 0 1 20 18h6c1.598 0 2-.354 2-3 0-3.948-3.754-10-7-10-1.238 0-5.947 1.574-9.03 2.707" clip-rule="evenodd"/></g><defs><clipPath id="a"><path fill="#fff" d="M0 0h32v32H0z"/></clipPath></defs></svg>
